getsomefishandchips0.svg

<svg viewBox="0 0 24 24" xmlns="http://www.w3.org/2000/svg"><path d="M9.75694 7.50469C9.45384 6.85856 9.18586 6.31973 8.97441 5.90766C8.70234 5.37755 8.89603 4.7273 9.41311 4.43133L10.023 4.08216C10.5737 3.76692 11.2762 3.9735 11.5676 4.53722C12.1765 5.71514 13.2041 7.83534 14.2322 10.5541L10.0877 10.5541L9.75694 7.50469Z M14.4059 10.7422C14.9953 7.14061 15.8147 4.25733 16.2846 2.76553C16.4752 2.16028 17.132 1.83647 17.7286 2.05284L18.3892 2.29242C18.9493 2.49558 19.2514 3.10308 19.074 3.67195C18.5816 5.25187 17.6567 8.54311 17.0985 12.5504L17.0985 14.3996L14.4059 16.038L14.4059 10.7422Z M22.3267 12.5447C22.8077 11.284 23.2429 10.2743 23.5493 9.59709C23.7949 9.05395 23.5695 8.41402 23.038 8.14387L22.4116 7.82545C21.846 7.53792 21.1547 7.779 20.8915 8.35631C20.4945 9.22739 19.9036 10.6 19.2698 12.3369L22.3267 12.5447Z" fill="#f9ed80"/><path d="M12.9396 8.84353C12.4674 6.59452 11.9537 4.80483 11.6285 3.76158C11.4512 3.1927 11.7533 2.5852 12.3134 2.38205L12.974 2.14247C13.5705 1.92609 14.2274 2.24986 14.418 2.85516C14.9772 4.63059 16.0315 8.37656 16.6038 12.9589C16.4129 13.1884 16.2851 13.4636 16.2331 13.7575C16.2153 13.8576 16.1887 13.9559 16.1536 14.0512L13.3241 14.0512L12.9396 8.84353Z M19.7874 12.3368C20.2834 9.88078 20.8432 7.92431 21.1894 6.81375C21.3667 6.24488 21.0646 5.63742 20.5045 5.43422L19.8439 5.19464C19.2474 4.97827 18.5905 5.30208 18.3999 5.90733C17.9758 7.25391 17.2669 9.73434 16.6994 12.8533L19.7874 12.3368Z" fill="#f9d888"/><path d="M5.28633 6.68386C5.05519 5.98584 4.58588 5.44486 4.02581 5.14861C3.82334 5.04077 3.58555 5.02056 3.36778 5.09267C3.15002 5.16479 2.97129 5.32294 2.8732 5.53031C2.60067 6.10223 2.547 6.81642 2.77809 7.51444C2.80928 7.60848 2.84525 7.70086 2.88586 7.79123C2.78873 7.77165 2.69067 7.75705 2.59205 7.7475C1.84856 7.67569 1.15392 7.89422 0.65475 8.2988C0.3 8.58628 0.248906 9.11545 0.542063 9.46556C0.954563 9.95817 1.5945 10.3056 2.33803 10.3774C3.36703 10.4768 4.30242 10.0201 4.75561 9.28373C5.37319 8.67862 5.61131 7.66528 5.28633 6.68386 M16.0401 13.8962L16.0312 13.8857C15.5346 13.3022 15.7192 12.627 15.718 12.594C15.8228 11.937 15.4716 11.2918 14.8628 11.0234L14.8003 10.9957C14.0433 10.6619 13.9586 9.93281 13.9447 9.9038C13.7922 9.27113 13.2405 8.81495 12.5905 8.78395L12.4927 8.77931C11.6787 8.74055 11.3392 8.11158 11.3184 8.09241C10.9404 7.54486 10.2408 7.32094 9.61509 7.54725L9.50869 7.58573C8.82089 7.83455 8.2852 7.47834 8.27569 7.47539C7.65628 7.12383 6.87375 7.26881 6.42141 7.81903L6.35536 7.89933C5.95823 8.38237 5.43337 8.41762 5.42761 8.41959C4.67719 8.52497 4.13105 9.18539 4.1685 9.94223C4.18661 10.3089 4.06639 10.6689 3.83166 10.9511L3.76514 11.0311C3.3097 11.5787 3.3142 12.3745 3.77583 12.9169L3.78469 12.9273C4.28133 13.5108 4.09664 14.1861 4.09786 14.2191C3.99309 14.8761 4.34433 15.5212 4.95314 15.7897L5.01558 15.8173C5.77256 16.1512 5.85727 16.8803 5.87128 16.9093C6.02372 17.5419 6.57534 17.9982 7.22541 18.0291L7.32314 18.0338C8.13727 18.0726 8.47673 18.7015 8.49745 18.7207C8.8755 19.2682 9.57516 19.4922 10.2008 19.2659L10.3072 19.2273C10.995 18.9786 11.5307 19.3347 11.5402 19.3377C12.1596 19.6892 12.9421 19.5442 13.3945 18.9941L13.4605 18.9137C13.8577 18.4307 14.3825 18.3954 14.3883 18.3935C15.1387 18.2881 15.6848 17.6277 15.6474 16.8708C15.6293 16.5042 15.7495 16.1442 15.9842 15.862L16.0507 15.782C16.5062 15.2345 16.5017 14.4386 16.0401 13.8962" fill="#e7886e"/><path d="M5.03302 14.2793C5.03302 11.7182 5.87578 9.32752 7.33359 7.3013C6.97594 7.35505 6.65093 7.53952 6.42141 7.81903L6.35531 7.89938C5.95819 8.38238 5.43338 8.41763 5.42756 8.41959C4.67719 8.52497 4.13105 9.18539 4.16845 9.94228C4.18655 10.3089 4.06636 10.6689 3.83166 10.9511L3.76514 11.0311C3.30966 11.5787 3.31416 12.3745 3.77578 12.9169L3.78469 12.9273C4.28133 13.5108 4.09659 14.1861 4.09781 14.2191C3.99305 14.8761 4.34433 15.5213 4.95309 15.7898L5.01558 15.8174C5.05974 15.8368 5.10296 15.8583 5.14509 15.8818C5.07066 15.3509 5.03321 14.8154 5.03302 14.2793" fill="#e27858"/><path d="M21.5054 12.3368L17.9285 12.3368C17.0938 12.3368 16.3792 12.9356 16.233 13.7575C16.0869 14.5794 15.3724 15.1781 14.5376 15.1781L9.984 15.1781C9.14925 15.1781 8.43469 14.5794 8.28858 13.7575C8.14247 12.9356 7.42791 12.3368 6.59311 12.3368L3.01627 12.3368C1.94466 12.3368 1.1333 13.3052 1.3208 14.3603L2.17228 19.1499C2.46689 20.8071 3.90764 22.0144 5.59083 22.0144L18.9308 22.0144C20.614 22.0144 22.0548 20.8071 22.3494 19.1499L23.2008 14.3603C23.3884 13.3052 22.577 12.3368 21.5054 12.3368" fill="#60d9a7"/><path d="M5.03302 14.2793C5.03302 13.6194 5.08973 12.9709 5.19769 12.3369L3.01631 12.3369C1.94466 12.3369 1.1333 13.3052 1.32084 14.3603L2.17228 19.1499C2.46689 20.8072 3.90764 22.0144 5.59083 22.0144L7.92066 22.0144C6.10402 19.8383 5.03302 17.167 5.03302 14.2793" fill="#00cd8c"/><path d="M1.93556 17.8184L2.17228 19.1499C2.46684 20.8072 3.90764 22.0144 5.59083 22.0144L18.9308 22.0144C20.614 22.0144 22.0548 20.8072 22.3494 19.1499L23.2008 14.3603C23.3884 13.3052 22.577 12.3369 21.5054 12.3369L17.9286 12.3369C17.0938 12.3369 16.3792 12.9356 16.2331 13.7575C16.087 14.5794 15.3724 15.1782 14.5376 15.1782L9.98405 15.1782C9.14925 15.1782 8.43469 14.5794 8.28858 13.7575C8.14247 12.9356 7.42791 12.3369 6.59311 12.3369L3.01631 12.3369C1.94466 12.3369 1.13325 13.3052 1.32084 14.3603L1.68558 16.4122 M5.28281 8.44748C5.47261 7.91798 5.48859 7.29473 5.28633 6.68386C5.05519 5.98584 4.58583 5.44486 4.02581 5.14856C3.82333 5.04076 3.58553 5.02056 3.36776 5.09268C3.15 5.16481 2.97126 5.32295 2.87316 5.53031C2.60067 6.10223 2.54695 6.81642 2.77809 7.51444C2.80924 7.60849 2.8452 7.70087 2.88581 7.79123C2.7887 7.77165 2.69065 7.75705 2.59205 7.7475C1.84852 7.67569 1.15392 7.89422 0.65475 8.2988C0.3 8.58628 0.248859 9.11545 0.542015 9.46556C0.954562 9.95817 1.5945 10.3056 2.33798 10.3774C3.02953 10.4442 3.67852 10.2596 4.16756 9.90792C4.14937 9.21497 4.61906 8.60944 5.28281 8.44748Z M6.59311 12.3368C7.42791 12.3368 8.14247 12.9356 8.28858 13.7575C8.43469 14.5794 9.14925 15.1781 9.98405 15.1781L14.5376 15.1781C15.2699 15.1781 15.9095 14.7174 16.1542 14.0496C16.1195 13.996 16.0814 13.9448 16.0401 13.8962L16.0312 13.8857C15.5345 13.3022 15.7192 12.627 15.718 12.594C15.8228 11.937 15.4716 11.2918 14.8627 11.0233L14.8003 10.9958C14.0433 10.6619 13.9586 9.93277 13.9447 9.9038C13.7922 9.27113 13.2405 8.81489 12.5905 8.78395L12.4927 8.77927C11.6786 8.7405 11.3392 8.11153 11.3184 8.09236C10.9404 7.54486 10.2407 7.32089 9.61505 7.5472L9.50869 7.58573C8.82084 7.8345 8.2852 7.47834 8.27569 7.47539C7.65623 7.12383 6.8737 7.26881 6.42136 7.81898L6.35531 7.89933C5.95823 8.38238 5.43337 8.41763 5.42761 8.41959C4.67714 8.52497 4.13105 9.18539 4.16845 9.94223C4.18657 10.3089 4.06637 10.6689 3.83166 10.9511L3.76514 11.031C3.45492 11.404 3.35831 11.8921 3.47395 12.3368L6.59311 12.3368Z M23.038 8.14378L22.4116 7.82536C21.846 7.53788 21.1547 7.77895 20.8915 8.35627C20.7587 8.64808 20.6287 8.9412 20.5017 9.23559C20.2357 10.2627 19.9975 11.2968 19.7874 12.3368L19.7874 12.3368L21.5054 12.3368C21.8048 12.3368 22.0839 12.4126 22.3267 12.5446C22.8077 11.284 23.2429 10.2743 23.5492 9.59705C23.7949 9.05391 23.5695 8.41392 23.038 8.14378Z M17.6708 9.201C17.4617 10.2371 17.264 11.3622 17.0985 12.5504C17.3527 12.4102 17.6383 12.3367 17.9285 12.3368L19.7874 12.3368C20.2833 9.88078 20.8432 7.92436 21.1894 6.81375C21.3667 6.24492 21.0646 5.63742 20.5045 5.43427L19.8439 5.19464C19.3208 5.00494 18.7516 5.2305 18.4907 5.69691C18.3018 6.40524 18.1264 7.11707 17.9643 7.83202 M17.9643 7.83202C18.3761 6.01584 18.7947 4.56825 19.074 3.67195C19.2514 3.10308 18.9493 2.49558 18.3892 2.29242L17.7286 2.05284C17.132 1.83647 16.4752 2.16023 16.2846 2.76553C15.8147 4.25733 14.9953 7.14061 14.4059 10.7422C14.5114 10.8374 14.6408 10.9254 14.8003 10.9958L14.8628 11.0233C15.4715 11.2919 15.8228 11.937 15.718 12.594C15.7192 12.627 15.5345 13.3022 16.0312 13.8857L16.04 13.8962C16.0822 13.9457 16.1192 13.9979 16.1536 14.0513C16.1887 13.9559 16.2153 13.8576 16.233 13.7575C16.3268 13.23 16.655 12.7948 17.0985 12.5504C17.2641 11.3621 17.4619 10.2375 17.6711 9.20105 M12.9396 8.84353C13.4311 8.99016 13.8204 9.38831 13.9446 9.9038C13.9557 9.92667 14.011 10.3855 14.4059 10.7422C14.6862 9.02967 15.0184 7.48012 15.3403 6.16481C14.993 4.75533 14.6594 3.62156 14.418 2.85516C14.2274 2.24986 13.5705 1.92609 12.974 2.14247L12.3134 2.38205C11.7533 2.5852 11.4512 3.1927 11.6285 3.76153C11.9537 4.80483 12.4674 6.59452 12.9396 8.84353Z M9.75694 7.50469L9.75694 7.50469C10.3439 7.35717 10.9687 7.58583 11.3184 8.09236C11.3391 8.11153 11.6786 8.7405 12.4927 8.77927L12.5904 8.78395C12.7088 8.78958 12.826 8.80959 12.9396 8.84353C12.7315 7.85193 12.4977 6.86589 12.2384 5.88642C12.0216 5.43334 11.798 4.98355 11.5676 4.53722C11.2762 3.9735 10.5737 3.76692 10.023 4.08216L9.41311 4.43128C8.89598 4.7273 8.70234 5.3775 8.97441 5.90766C9.18586 6.31973 9.45384 6.85856 9.75694 7.50469Z M16.5129 17.3351L16.5129 18.1522 M11.1398 18.1279C11.4124 18.4407 11.8134 18.6386 12.2609 18.6386C12.7083 18.6386 13.1093 18.4407 13.3819 18.1279 M8.00873 17.3351L8.00873 18.1522" fill="none" opacity="1" stroke="#000000" stroke-linecap="round" stroke-linejoin="round" stroke-opacity="0" stroke-width="20"/></svg>

<svg viewBox="0 0 24 24" xmlns="http://www.w3.org/2000/svg"><path d="M9.757 7.505a50.398 50.398 0 0 0-.783-1.597 1.115 1.115 0 0 1 .44-1.477l.609-.349a1.115 1.115 0 0 1 1.545.455 58.093 58.093 0 0 1 2.664 6.017h-4.144l-.331-3.05Zm4.649 3.237a58.8 58.8 0 0 1 1.879-7.976c.19-.606.847-.93 1.444-.713l.66.24c.56.203.862.81.685 1.379a57.356 57.356 0 0 0-1.976 8.878v1.85l-2.692 1.638v-5.296Zm7.92 1.803c.482-1.261.917-2.27 1.223-2.948a1.115 1.115 0 0 0-.511-1.453l-.626-.319a1.115 1.115 0 0 0-1.52.531 55.991 55.991 0 0 0-1.622 3.98l3.057.209Z" fill="#f9ed80"/><path d="M12.94 8.844a56.113 56.113 0 0 0-1.311-5.082 1.115 1.115 0 0 1 .684-1.38l.661-.24a1.115 1.115 0 0 1 1.444.713 59.024 59.024 0 0 1 2.186 10.104c-.191.23-.319.505-.37.799-.019.1-.045.198-.08.293h-2.83l-.384-5.207Zm6.847 3.493a56.461 56.461 0 0 1 1.402-5.523 1.115 1.115 0 0 0-.684-1.38l-.661-.24a1.115 1.115 0 0 0-1.444.713 58.418 58.418 0 0 0-1.7 6.946l3.087-.516Z" fill="#f9d888"/><path d="M5.286 6.684c-.23-.698-.7-1.24-1.26-1.535a.839.839 0 0 0-1.153.381c-.272.572-.326 1.286-.095 1.984.031.094.067.187.108.277a2.902 2.902 0 0 0-.294-.044c-.743-.071-1.438.147-1.937.552a.826.826 0 0 0-.113 1.167c.413.492 1.052.84 1.796.911 1.029.1 1.964-.357 2.418-1.093.617-.605.855-1.619.53-2.6m10.754 7.212-.009-.01c-.496-.584-.312-1.259-.313-1.292a1.464 1.464 0 0 0-.855-1.57l-.063-.028c-.757-.334-.841-1.063-.855-1.092a1.465 1.465 0 0 0-1.354-1.12l-.098-.005c-.814-.038-1.154-.667-1.175-.687a1.464 1.464 0 0 0-1.703-.545l-.106.039c-.688.249-1.224-.108-1.233-.11a1.465 1.465 0 0 0-1.855.343l-.066.08c-.397.483-.922.519-.927.52a1.465 1.465 0 0 0-1.26 1.523c.019.367-.102.727-.336 1.01l-.067.08a1.465 1.465 0 0 0 .01 1.885l.01.01c.496.584.312 1.26.313 1.292a1.464 1.464 0 0 0 .855 1.57l.063.028c.757.334.841 1.063.855 1.092a1.465 1.465 0 0 0 1.354 1.12l.098.005c.814.039 1.154.668 1.174.687a1.465 1.465 0 0 0 1.704.545l.106-.039c.688-.248 1.224.108 1.233.11.62.352 1.402.207 1.855-.343l.066-.08c.397-.483.921-.519.927-.52a1.465 1.465 0 0 0 1.26-1.523 1.465 1.465 0 0 1 .336-1.009l.067-.08a1.465 1.465 0 0 0-.01-1.886" fill="#e7886e"/><path d="M5.033 14.28c0-2.562.843-4.952 2.3-6.979a1.461 1.461 0 0 0-.912.518l-.066.08c-.397.483-.922.519-.927.52a1.465 1.465 0 0 0-1.26 1.523c.019.367-.102.727-.336 1.01l-.067.08a1.465 1.465 0 0 0 .01 1.885l.01.01c.496.584.312 1.26.313 1.292a1.465 1.465 0 0 0 .855 1.57l.063.028c.044.02.087.041.13.065a11.572 11.572 0 0 1-.113-1.603" fill="#e27858"/><path d="M21.505 12.337H17.93c-.835 0-1.55.599-1.696 1.42a1.722 1.722 0 0 1-1.695 1.421H9.984c-.835 0-1.55-.599-1.695-1.42a1.722 1.722 0 0 0-1.696-1.421H3.016a1.722 1.722 0 0 0-1.695 2.023l.851 4.79a3.472 3.472 0 0 0 3.419 2.864h13.34a3.472 3.472 0 0 0 3.418-2.864l.852-4.79a1.722 1.722 0 0 0-1.696-2.023" fill="#60d9a7"/><path d="M5.033 14.28c0-.66.057-1.31.165-1.943H3.016a1.722 1.722 0 0 0-1.695 2.023l.851 4.79a3.472 3.472 0 0 0 3.419 2.864h2.33c-1.817-2.176-2.888-4.847-2.888-7.735" fill="#00cd8c"/><path d="m1.936 17.818.236 1.332a3.472 3.472 0 0 0 3.419 2.864h13.34a3.472 3.472 0 0 0 3.418-2.864l.852-4.79a1.722 1.722 0 0 0-1.696-2.023H17.93c-.835 0-1.55.599-1.696 1.42a1.722 1.722 0 0 1-1.695 1.421H9.984c-.835 0-1.55-.599-1.695-1.42a1.722 1.722 0 0 0-1.696-1.421H3.016a1.722 1.722 0 0 0-1.695 2.023l.365 2.052m3.597-7.965c.19-.529.206-1.152.003-1.763-.23-.698-.7-1.24-1.26-1.535a.839.839 0 0 0-1.153.381c-.272.572-.326 1.286-.095 1.984.031.094.067.187.108.277a2.902 2.902 0 0 0-.294-.044c-.743-.071-1.438.147-1.937.552a.826.826 0 0 0-.113 1.167c.413.492 1.052.84 1.796.911a2.692 2.692 0 0 0 1.83-.47 1.464 1.464 0 0 1 1.115-1.46Zm1.31 3.89c.835 0 1.55.599 1.696 1.42.146.822.86 1.421 1.695 1.421h4.554c.732 0 1.371-.46 1.616-1.128a1.473 1.473 0 0 0-.114-.154l-.009-.01c-.496-.584-.312-1.259-.313-1.292a1.464 1.464 0 0 0-.855-1.57l-.063-.028c-.757-.334-.841-1.063-.855-1.092a1.465 1.465 0 0 0-1.354-1.12l-.098-.005c-.814-.038-1.154-.667-1.175-.687a1.465 1.465 0 0 0-1.703-.545l-.106.039c-.688.248-1.224-.108-1.233-.11a1.465 1.465 0 0 0-1.855.343l-.066.08c-.397.483-.922.519-.927.52a1.465 1.465 0 0 0-1.26 1.523c.019.367-.102.727-.336 1.01l-.067.079c-.31.373-.407.861-.291 1.306h3.12Zm16.445-4.193-.626-.319a1.115 1.115 0 0 0-1.52.531c-.133.292-.263.585-.39.88a58.858 58.858 0 0 0-.715 3.1h1.718c.3 0 .579.077.822.209.48-1.261.916-2.27 1.222-2.948a1.115 1.115 0 0 0-.511-1.453ZM17.671 9.2a56.065 56.065 0 0 0-.572 3.35c.254-.14.54-.214.83-.214h1.858a56.436 56.436 0 0 1 1.402-5.523 1.115 1.115 0 0 0-.684-1.38l-.661-.24a1.116 1.116 0 0 0-1.353.503c-.19.708-.365 1.42-.527 2.135m0 0c.412-1.816.83-3.264 1.11-4.16a1.115 1.115 0 0 0-.685-1.38l-.66-.24a1.115 1.115 0 0 0-1.444.714 58.8 58.8 0 0 0-1.88 7.976c.106.095.236.183.395.254l.063.027c.609.269.96.914.855 1.571.001.033-.184.708.313 1.292l.009.01c.042.05.08.102.114.155.035-.095.061-.193.079-.293.094-.528.422-.963.866-1.208.165-1.188.363-2.313.572-3.349m-4.731-.357c.491.146.88.544 1.005 1.06.01.023.066.482.46.838.281-1.712.613-3.262.935-4.577a54.62 54.62 0 0 0-.922-3.31 1.115 1.115 0 0 0-1.444-.713l-.66.24c-.56.203-.863.81-.685 1.38a56.12 56.12 0 0 1 1.31 5.082Zm-3.183-1.34a1.464 1.464 0 0 1 1.561.588c.021.02.36.649 1.175.687l.097.005c.119.006.236.026.35.06a58.522 58.522 0 0 0-.702-2.958c-.216-.453-.44-.902-.67-1.349a1.115 1.115 0 0 0-1.545-.455l-.61.35c-.517.295-.71.946-.439 1.476.212.412.48.95.783 1.597Zm6.756 9.831v.817m-5.373-.024a1.483 1.483 0 0 0 2.242 0m-5.373-.793v.817" fill="none"/></svg>
